src/icons/icons_set_03/040-imprimante.svg

<svg height="50" viewBox="0 0 50 50" width="50" xmlns="http://www.w3.org/2000/svg"><path d="m34.5025 15.7921665c4.9208836.1873429 7.3824702 3.4843159 7.3824702 7.8234549v13.0506066h-7.3824702v.338772c0 2.7614237-2.2385763 5-5 5h-16.995c-2.76142375 0-5-2.2385763-5-5v-.338772h-7.38247024v-13.0506066c.00161877-5.0699931 2.46244218-7.6784239 7.38247024-7.8252921v-10.7853293c0-2.76142375 2.23857625-5 5-5h16.995c2.7614237 0 5 2.23857625 5 5zm-4 12.5878335h-18.995v8.625c0 .5522847.4477153 1 1 1h16.995c.5522847 0 1-.4477153 1-1zm-18.995-12.5962429h18.995v-10.7787571c0-.55228475-.4477153-1-1-1h-16.995c-.5522847 0-1 .44771525-1 1z" transform="translate(3.995 3.995)"/></svg>

<?xml version="1.0" encoding="UTF-8"?>
<svg width="50px" height="50px" viewBox="0 0 50 50" version="1.1" xmlns="http://www.w3.org/2000/svg" xmlns:xlink="http://www.w3.org/1999/xlink">
    <!-- Generator: Sketch 52.4 (67378) - http://www.bohemiancoding.com/sketch -->
    <title>040-imprimante</title>
    <desc>Created with Sketch.</desc>
    <g id="040-imprimante" stroke="none" stroke-width="1" fill="none" fill-rule="evenodd">
        <g id="Group" transform="translate(3.995000, 3.995000)" fill="#000000" fill-rule="nonzero">
            <g id="074-imprimante">
                <g id="ICONSET-01">
                    <g id="074-imprimante">
                        <path d="M34.5025,15.7921665 C39.4233836,15.9795094 41.8849702,19.2764824 41.8849702,23.6156214 L41.8849702,36.666228 L34.5025,36.666228 L34.5025,37.005 C34.5025,39.7664237 32.2639237,42.005 29.5025,42.005 L12.5075,42.005 C9.74607625,42.005 7.5075,39.7664237 7.5075,37.005 L7.5075,36.666228 L0.125029762,36.666228 L0.125029762,23.6156214 C0.126648534,18.5456283 2.58747194,15.9371975 7.5075,15.7903293 L7.5075,5.005 C7.5075,2.24357625 9.74607625,0.005 12.5075,0.005 L29.5025,0.005 C32.2639237,0.005 34.5025,2.24357625 34.5025,5.005 L34.5025,15.7921665 Z M30.5025,28.38 L11.5075,28.38 L11.5075,37.005 C11.5075,37.5572847 11.9552153,38.005 12.5075,38.005 L29.5025,38.005 C30.0547847,38.005 30.5025,37.5572847 30.5025,37.005 L30.5025,28.38 Z M11.5075,15.7837571 L30.5025,15.7837571 L30.5025,5.005 C30.5025,4.45271525 30.0547847,4.005 29.5025,4.005 L12.5075,4.005 C11.9552153,4.005 11.5075,4.45271525 11.5075,5.005 L11.5075,15.7837571 Z" id="Combined-Shape"></path>
                    </g>
                </g>
            </g>
        </g>
    </g>
</svg>
